X: 18653
T: I'll Buy Boots For Maggie
R: polka
M: 2/4
K: Adorian
|:A,>B, CD|EG GA|EG/E/ DB,|A,B, G,B,|A,>B, CD|EG GA|EG/E/ DB,|B,A, A,2:|
|:E2 AB|cB AB|=F2 AB|cB AB|^F2 AB|cB AB|EG/E/ DB,|B,A, A,2:|

